X: 8059
T: Connie The Soldier
R: jig
M: 6/8
K: Dmajor
F2 G ADD|ded cAG|EFG EFG|FAF GED|
F2 G ADD|ded cAG|EFG EAG|1 EDD D2 E:|2 EDD D2 e||
fdd edc|edd d2 e|fdd e2 d|cAA A2 e|
fdd edc|Add cAG|EFG EAG|1 EDD D2 e:|2 EDD D2 E||

